dist/flags/s/762.svg

<svg width="16" height="12" viewBox="0 0 16 12" fill="none" xmlns="http://www.w3.org/2000/svg">
<mask id="mask0" mask-type="alpha" maskUnits="userSpaceOnUse" x="0" y="0" width="16" height="12">
<rect width="16" height="12" fill="white"/>
</mask>
<g mask="url(#mask0)">
<path fill-rule="evenodd" clip-rule="evenodd" d="M0 0H16V12H0V0Z" fill="#F7FCFF"/>
<path fill-rule="evenodd" clip-rule="evenodd" d="M0 0V4H16V0H0Z" fill="#C51918"/>
<path fill-rule="evenodd" clip-rule="evenodd" d="M0 8V12H16V8H0Z" fill="#409100"/>
<path fill-rule="evenodd" clip-rule="evenodd" d="M7.97263 7.78855C7.76631 7.79446 7.62888 7.57651 7.62888 7.57651L7.84041 7.52201C7.85357 7.38252 7.94923 7.30835 7.94923 7.30835C8.01248 7.34899 8.08084 7.53214 8.08084 7.53214L8.26207 7.55761C8.26207 7.55761 8.17895 7.78264 7.97263 7.78855ZM6.96523 7.85087C6.76175 7.88544 6.59532 7.68874 6.59532 7.68874L6.79721 7.60533C6.79082 7.46537 6.87523 7.3786 6.87523 7.3786C6.94352 7.41005 7.03671 7.5819 7.03671 7.5819H7.21972C7.21972 7.5819 7.16872 7.81631 6.96523 7.85087ZM6.24146 8.04897L6.33362 8.37715C6.81168 8.2478 7.36657 8.18276 7.99818 8.18276C8.62978 8.18276 9.18467 8.2478 9.66273 8.37715L9.75489 8.04897C9.24487 7.91097 8.65934 7.84233 7.99818 7.84233C7.33701 7.84233 6.75148 7.91097 6.24146 8.04897ZM9.37001 7.72278C9.37001 7.72278 9.20358 7.91948 9.00009 7.88492C8.79661 7.85035 8.74561 7.61595 8.74561 7.61595H8.92862C8.92862 7.61595 9.02181 7.44409 9.09009 7.41265C9.09009 7.41265 9.17451 7.49941 9.16812 7.63937L9.37001 7.72278Z" fill="#FFBB00"/>
<path fill-rule="evenodd" clip-rule="evenodd" d="M7.97927 6.84913C7.97927 6.84913 7.74477 7.38577 7.37545 7.42728C7.00612 7.46879 6.81854 7.12207 6.81854 7.12207C6.81854 7.12207 6.79435 7.48262 6.35573 7.6216C5.91712 7.76059 5.68616 7.2053 5.68616 7.2053C5.68616 7.2053 5.91451 7.40956 6.26868 7.32055C6.62284 7.23154 6.76264 6.90284 6.76264 6.90284C6.76264 6.90284 7.02475 7.24553 7.37545 7.07418C7.72614 6.90284 7.92016 6.69343 7.92016 6.49249V5.89158C7.92016 5.89158 7.82968 5.73575 7.67273 5.73575C7.51577 5.73575 7.47197 5.84622 7.47197 5.84622C7.47197 5.84622 7.4107 5.22106 7.9752 5.18242L7.97517 5.18091L7.99078 5.18151L8.00639 5.18091L8.00637 5.18242C8.57086 5.22106 8.5096 5.84622 8.5096 5.84622C8.5096 5.84622 8.4658 5.73575 8.30884 5.73575C8.15189 5.73575 8.06141 5.89158 8.06141 5.89158V6.49249C8.06141 6.69343 8.25543 6.90284 8.60612 7.07418C8.95682 7.24553 9.21892 6.90284 9.21892 6.90284C9.21892 6.90284 9.35872 7.23154 9.71289 7.32055C10.0671 7.40956 10.2954 7.2053 10.2954 7.2053C10.2954 7.2053 10.0644 7.76059 9.62583 7.6216C9.18722 7.48262 9.16303 7.12207 9.16303 7.12207C9.16303 7.12207 8.97545 7.46879 8.60612 7.42728C8.2368 7.38577 8.0023 6.84913 8.0023 6.84913L7.99078 6.14083L7.97927 6.84913ZM7.97407 5.35075C7.71366 5.35075 7.66091 5.57121 7.66091 5.57121C7.89021 5.57121 7.97407 5.67115 7.97407 5.67115C7.97407 5.67115 8.14384 5.57121 8.31477 5.57121C8.31477 5.57121 8.23449 5.35075 7.97407 5.35075Z" fill="#FFBB00"/>
<path d="M5.95025 6.49916L4.9539 6.58446C4.88098 5.73272 5.23154 4.92694 5.96829 4.18859C7.05207 3.10244 9.24675 3.20824 10.1809 4.19868C10.7147 4.76455 10.9881 5.54866 11.0144 6.52839L10.0147 6.55522C9.99457 5.80473 9.80307 5.25547 9.45348 4.88483C8.89619 4.29398 7.35016 4.21945 6.67616 4.89492C6.13412 5.43815 5.90459 5.96574 5.95025 6.49916Z" fill="#FFBB00"/>
</g>
</svg>

<svg width="16" height="12" fill="none" xmlns="http://www.w3.org/2000/svg">
  <mask id="a" maskUnits="userSpaceOnUse" x="0" y="0" width="16" height="12">
    <path fill="#fff" d="M0 0h16v12H0z"/>
  </mask>
  <g mask="url(#a)">
    <path fill-rule="evenodd" clip-rule="evenodd" d="M0 0h16v12H0V0z" fill="#F7FCFF"/>
    <path fill-rule="evenodd" clip-rule="evenodd" d="M0 0v4h16V0H0z" fill="#C51918"/>
    <path fill-rule="evenodd" clip-rule="evenodd" d="M0 8v4h16V8H0z" fill="#409100"/>
    <path fill-rule="evenodd" clip-rule="evenodd" d="M7.973 7.789c-.207.006-.344-.212-.344-.212l.211-.055c.014-.14.11-.214.11-.214.062.041.13.224.13.224l.182.026s-.083.225-.29.23zm-1.008.062c-.203.035-.37-.162-.37-.162l.202-.084a.322.322 0 01.078-.226c.069.031.162.203.162.203h.183s-.051.234-.255.269zm-.724.198l.093.328c.478-.13 1.033-.194 1.664-.194.632 0 1.187.065 1.665.194l.092-.328c-.51-.138-1.096-.207-1.757-.207-.661 0-1.247.07-1.757.207zm3.129-.326s-.166.197-.37.162c-.203-.035-.254-.269-.254-.269h.183s.093-.172.161-.203c0 0 .085.087.078.226l.202.084z" fill="#FB0"/>
    <path fill-rule="evenodd" clip-rule="evenodd" d="M7.98 6.85s-.235.536-.605.577c-.369.042-.556-.305-.556-.305s-.025.36-.463.5c-.439.139-.67-.417-.67-.417s.229.205.583.116c.354-.09.494-.418.494-.418s.262.343.612.171c.351-.171.545-.38.545-.581v-.601s-.09-.156-.247-.156-.201.11-.201.11-.061-.625.503-.663V5.18h.031v.002c.565.038.504.663.504.663s-.044-.11-.201-.11c-.157 0-.248.156-.248.156v.6c0 .202.194.411.545.582.35.172.613-.171.613-.171s.14.329.494.418a.663.663 0 00.582-.116s-.23.556-.67.417c-.438-.14-.462-.5-.462-.5s-.188.347-.557.305c-.37-.041-.604-.578-.604-.578l-.011-.708-.012.708zm-.006-1.5c-.26 0-.313.221-.313.221.23 0 .313.1.313.1s.17-.1.34-.1c0 0-.08-.22-.34-.22z" fill="#FB0"/>
    <path d="M5.95 6.5l-.996.085c-.073-.852.278-1.658 1.014-2.396 1.084-1.087 3.279-.98 4.213.01.534.566.807 1.35.833 2.33l-1 .026c-.02-.75-.21-1.3-.56-1.67-.558-.591-2.104-.665-2.778.01-.542.543-.771 1.07-.726 1.604z" fill="#FB0"/>
  </g>
</svg>
